X:52
T:The Bishop
M:2/2
L:1/4
S:Colin Hume's website,  colinhume.com  - chords can also be printed below the stave.
Q:1/2=120
K:A
%%center to the tune of Miss Dolland's Delight
P:A
|: "A"Aa- ag- | "D"gf- "A"fe | "D"fa "A"ec | "Bm"dB "E7"AG | "A"Aa- ag- | "D"gf- "A"fe | "B7"fa B^d | "E"e2 E2 :|
P:B
|: "E7"Ed- dc/B/ | "A"ce- "E7"ed | "A"ca Ac | "E7"BE E2 | "A"Ac- cB/A/ | "Bm"Ba gf | "E7"ed cB | "A"A2 A,2 :|

